X: 41649
T: Up To Your Knees In Sand
R: reel
M: 4/4
K: Gmajor
G2 GF GABc|dBeB dBAF|DFAF BFAF|DFAF GFEF|
G2 GF GABc|dBeB dB A2|Be e2 dBAF|DEFD E2 EF:|
GB B2 gBeB|FA A2 FAdA|GB B2 dBdB|AGFG E2 EF|
GB B2 gBeB|FA A2 FA d2|G2 GF GBdB|1 AGFG E2 EF:|2 AGFG E4||

